X:164
T:Pigeon on the Gate (Becky)
M:2/2
L:1/8
K:EDor
dc||"Emi"BE ~E2 BEdE|BE ~E2 dBAF|"D"~D3 B AD D/2D/2D|DEFA BAFA
|"Emi"BE ~E2 BEdE|BE ~E2 B2 AF|"D"D2 FA dfec|"D"dBAF "Emi"E2FA:||:
"Emi"Beed efed|(3Bcd) ef gfed|"D"BABc d3 B|AF F/2F/2F  DEFA|
"Emi"Beed efed|(3Bcd) ef g2 fg|"D"af ge (3fga) ed|1BdAF "Emi"E2FA:||2dBA
F "Emi"E2dc||
